X:4020
T:Oksblvals no 2 (Ejnar Nielsens Trombonevals)
M:3/4
O:Denmark
R:Waltz
Z:Richard Robinson 
%%TUNEURL: http://www.leeds.ac.uk/music/Info/RRTuneBk/gettune/0000091b.html
%%ID:0000091b
K:D
A,2 |\
D2 DEFG | A2 F2A2 | d2 f2(3fgf | e4e2 |1 \
E2EDEF | G2E2A2 | cB AG FE | F2D2 :|2 \
E2EDEF | G2E2G2 | cB AG FE | D4 :: A2 | \
A2FA d2 | AFAd f2 | G2G2G2 | FE DF A2 |\
A2FA d2 | AF Ad f2 | G2G2G2 | F4 :: A2 |\
f4 e2 | d2c2B2 | A2G2F2 | E4E2 |\
e4d2 | c2B2A2 | A2 ABAG | F2A2d2 |\
f4 e2 | d2 c2 B2 | A2 G2F2 | E4 E2 |\
e4d2 | c2B2A2 | A2B2c2 | d4 :|
